packages/core/src/svgs/dad.svg

<svg width="24" height="24" viewBox="0 0 24 24" fill="none" xmlns="http://www.w3.org/2000/svg">
<g clip-path="url(#clip0_31_8991)">
<path d="M0 0H24V24H0V0Z" fill="url(#paint0_linear_31_8991)"/>
<path d="M12.937 5.57129H6.42871V8.14272H12.025C13.1063 8.17143 15.4287 9.43058 15.4287 11.837C15.4287 14.7213 13.2121 15.857 12.025 15.857H9.00014V18.4284H12.937C14.7811 18.4284 18.5119 16.5899 18.427 11.837C18.343 7.085 14.6749 5.57129 12.937 5.57129ZM10.2859 10.7141H11.5716C11.9126 10.7141 12.2396 10.8496 12.4807 11.0907C12.7218 11.3318 12.8573 11.6589 12.8573 11.9999C12.8573 12.3409 12.7218 12.6679 12.4807 12.909C12.2396 13.1501 11.9126 13.2856 11.5716 13.2856H10.2859V10.7141ZM6.42871 11.9999C6.42871 11.6589 6.56417 11.3318 6.80529 11.0907C7.04641 10.8496 7.37343 10.7141 7.71443 10.7141V13.2856C7.37343 13.2856 7.04641 13.1501 6.80529 12.909C6.56417 12.6679 6.42871 12.3409 6.42871 11.9999Z" fill="white"/>
</g>
<defs>
<linearGradient id="paint0_linear_31_8991" x1="5.21571" y1="3.01629" x2="19.5304" y2="20.5924" gradientUnits="userSpaceOnUse">
<stop stop-color="#00EDEF"/>
<stop offset="1" stop-color="#0094FF"/>
</linearGradient>
<clipPath id="clip0_31_8991">
<rect width="24" height="24" fill="white"/>
</clipPath>
</defs>
</svg>

<svg xmlns="http://www.w3.org/2000/svg" width="24" height="24" fill="none" viewBox="0 0 24 24"><g clip-path="url(#a)"><path fill="url(#b)" d="M0 0h24v24H0z"/><path fill="#fff" d="M12.937 5.571H6.429v2.572h5.596c1.081.028 3.404 1.288 3.404 3.694 0 2.884-2.217 4.02-3.404 4.02H9v2.571h3.937c1.844 0 5.575-1.838 5.49-6.591-.084-4.752-3.752-6.266-5.49-6.266m-2.651 5.143h1.286a1.286 1.286 0 0 1 0 2.572h-1.286zM6.429 12a1.286 1.286 0 0 1 1.285-1.286v2.572A1.286 1.286 0 0 1 6.43 12"/></g><defs><linearGradient id="b" x1="5.216" x2="19.53" y1="3.016" y2="20.592" gradientUnits="userSpaceOnUse"><stop stop-color="#00EDEF"/><stop offset="1" stop-color="#0094FF"/></linearGradient><clipPath id="a"><path fill="#fff" d="M0 0h24v24H0z"/></clipPath></defs></svg>
